src/assets/user-icon.svg

<svg width="20" height="21" viewBox="0 0 20 21" fill="none" xmlns="http://www.w3.org/2000/svg">
<path d="M14.5 5.36365C14.5 7.85 12.4864 9.86365 10 9.86365C7.51364 9.86365 5.5 7.85 5.5 5.36365C5.5 2.87729 7.51364 0.863647 10 0.863647C12.4864 0.863647 14.5 2.87729 14.5 5.36365ZM0.5 17.8636C0.5 17.216 0.820443 16.6118 1.43228 16.0471C2.04751 15.4793 2.92348 14.9859 3.93437 14.5809C5.95696 13.7707 8.39375 13.3636 10 13.3636C11.6062 13.3636 14.043 13.7707 16.0656 14.5809C17.0765 14.9859 17.9525 15.4793 18.5677 16.0471C19.1796 16.6118 19.5 17.216 19.5 17.8636V19.8636H0.5V17.8636Z" stroke="black"/>
</svg>

<svg width="20" height="21" fill="none" xmlns="http://www.w3.org/2000/svg"><path d="M14.5 5.364c0 2.486-2.014 4.5-4.5 4.5a4.499 4.499 0 0 1-4.5-4.5c0-2.487 2.014-4.5 4.5-4.5s4.5 2.013 4.5 4.5zm-14 12.5c0-.648.32-1.252.932-1.817.616-.568 1.491-1.061 2.502-1.466 2.023-.81 4.46-1.217 6.066-1.217 1.606 0 4.043.407 6.066 1.217 1.01.405 1.887.898 2.502 1.466.612.565.932 1.169.932 1.817v2H.5v-2z" stroke="#000"/></svg>
